X: 18
T:The Ballydesmond Polkas No 2
% Nottingham Music Database
S:via PR
M:2/4
L:1/4
K:G
"Am"c/2d/4c/4 "G"B/2c/4B/4|"F"A/2B/4A/4 "Em"G3/4A/4||"G"B/4c/4d/2 "D"e/2d/2|\
"G"g3/2d/2|"Am"e/2a/2 g/2e/2|"G"d/2B/2 G/2A/4B/4|"Am"c/2e/2 "G"d/2B/2|"Am"A A::
"Am"e/2a/2 a/2g/4e/4|"G"d/2g/2 g/2d/2|"Am"e/2a/2 a/2b/2|"G"g3/4f/4 g/2d/2|\
"Am"e/2a/2 g/2e/2|"G"d/2B/2 G/2A/4B/4|"Am"c/2e/2 "G"d/2B/2|"Am"A A:|<end>
<start>
